!!!COM: Corelli, Arcangelo
!!!OPR: Sonata da camera
!!!OPS: 4
!!!ONM: 8
!!!OMV: 3
!!!OTL: Sarabanda
!!!OMD: Allegro
**kern	**fb	**kern	**kern
*part4	*part4	*part2	*part1
*staff4	*	*staff2	*staff1
*I"Violone & Cembalo	*	*I"Violino II	*I"Violino I
*clefF4	*	*clefG2	*clefG2
*k[]	*	*k[]	*k[]
*d:	*	*d:	*d:
*M6/8	*	*M6/8	*M6/8
*MM152	*	*MM152	*MM152
=1	=1	=1	=1
8dL	.	4.dd	4.ff
8F	.	.	.
8DJ	.	.	.
8AL	#	4.cc#X	4.ee
8C#X	.	.	.
8AAJ	.	.	.
=2	=2	=2	=2
8DL	.	4.ff	4.dd
8F	6	.	.
8DJ	.	.	.
8AL	#	4.ee	4.cc#X
8G	.	.	.
8AJ	.	.	.
=3	=3	=3	=3
8FL	.	4.ff	4.aa
8G	.	.	.
8AJ	.	.	.
8B-XL	.	4.dd	4.ff
8A	.	.	.
8B-J	.	.	.
=4	=4	=4	=4
8GL	-	4.dd	4.bb-X
8F	.	.	.
8GJ	.	.	.
4.A	#	4.cc#X	4.aa
=5||	=5||	=5||	=5||
8AL	#	4.cc#X	4.ee
8G	.	.	.
8AJ	.	.	.
8FL	6	4.dd	4.ff
8E	.	.	.
8DJ	.	.	.
=6	=6	=6	=6
*F:	*	*F:	*F:
8cL	.	4.ee	4.gg
8B-X	.	.	.
8cJ	.	.	.
8AL	6	4.ff	4.aa
8G	.	.	.
8FJ	.	.	.
=7	=7	=7	=7
8FL	.	8aaL	8cccL
8G	.	8gg	8bb-X
8AJ	.	8ffJ	8aaJ
8CL	.	8eeL	8ggL
8BB-X	.	8ff	8aa
8AAJ	.	8ggJ	8bb-J
=8	=8	=8	=8
8BB-X	7 5	8ff	8aa
4C	.	4ee	4gg
4.FF	.	4.ff	4.ff
=9	=9	=9	=9
8FL	.	4.ff	4.aa
8A	.	.	.
8FJ	.	.	.
8cL	.	4.ee	4.gg
8E	.	.	.
8CJ	.	.	.
=10	=10	=10	=10
*d:	*	*d:	*d:
8GL	-	4.gg	4.bb-X
8B-X	.	.	.
8GJ	.	.	.
8dL	.	4.ff	4.aa
8F	.	.	.
8DJ	.	.	.
=11	=11	=11	=11
8GL	9 7 -	8ffL	8aaL
8B-X	6	8ee	8gg
8GJ	.	8ddJ	8ffJ
8AL	#	8cc#XL	8eeL
8F	6	8dd	8ff
8DJ	.	8eeJ	8ggJ
=12	=12	=12	=12
8GG	7 5	8dd	8ff
4AA	#	4cc#X	4ee
4.D	.	4.dd	4.dd
=13	=13	=13	=13
*F:	*	*F:	*F:
8FL	.	4.ff	4.aa
8A	.	.	.
8FJ	.	.	.
8cL	.	4.ee	4.gg
8E	.	.	.
8CJ	.	.	.
=14	=14	=14	=14
*d:	*	*d:	*d:
8GL	-	4.gg	4.bb-X
8B-X	.	.	.
8GJ	.	.	.
8dL	.	4.ff	4.aa
8F	.	.	.
8DJ	.	.	.
=15	=15	=15	=15
8GL	9 7	8ffL	8aaL
8B-X	6	8ee	8gg
8GJ	.	8ddJ	8ffJ
8AL	#	8cc#XL	8eeL
8F	6	8dd	8ff
8DJ	.	8eeJ	8ggJ
=16	=16	=16	=16
8GG	7 5	8dd	8ff
4AA	#	4cc#X	4ee
4.D	.	4.dd	4.dd
=:|!	=:|!	=:|!	=:|!
*-	*-	*-	*-
!!!system-decoration: [{s1,s2},s3,s4]
!!!YEM: CC BY-NC-SA 4.0; CCARH; DCML